src/modules/70-pipeline/components/ManifestSelection/ManifestWizardSteps/kustomizeparam.svg

<svg fill="none" viewBox="0 0 32 32" xmlns="http://www.w3.org/2000/svg"><rect fill="#526eb3" height="15.2105" opacity=".7" rx="2" width="13.5227" x="2" y="3"/><rect fill="#36559e" height="15.2105" rx="2" width="13.5227" x="3.93182" y="4.78943"/><path d="m7.79547 9.4696h1.78323v7.158h-1.78323z" fill="#fff"/><path d="m12.2535 9.46975h2.3776l-5.05244 4.95555v-2.2025z" fill="#fff"/><path d="m12.848 16.6276h2.3776l-3.5665-4.6802-1.1888 1.3766z" fill="#fff"/><g fill="#36559e"><path d="m22 15h6c.5523 0 1 .4477 1 1v2c0 .5523-.4477 1-1 1h-6c-.5523 0-1-.4477-1-1v-2c0-.5523.4477-1 1-1z"/><path d="m3.33333 24.3333h24.66667c.5523 0 1 .4477 1 1v2c0 .5523-.4477 1-1 1h-24.66667c-.55228 0-1-.4477-1-1v-2c0-.5523.44772-1 1-1z"/><path d="m23 6h5c.5523 0 1 .44772 1 1v2c0 .55228-.4477 1-1 1h-5c-.5523 0-1-.44772-1-1v-2c0-.55228.4477-1 1-1z"/></g></svg>

<svg viewBox="0 0 32 32" fill="none" xmlns="http://www.w3.org/2000/svg">
<rect opacity="0.7" x="2" y="3" width="13.5227" height="15.2105" rx="2" fill="#526EB3"/>
<rect x="3.93182" y="4.78943" width="13.5227" height="15.2105" rx="2" fill="#36559E"/>
<path d="M7.79547 9.4696H9.5787V16.6276H7.79547V9.4696Z" fill="white"/>
<path d="M12.2535 9.46975L14.6311 9.46975L9.57866 14.4253L9.57866 12.2228L12.2535 9.46975Z" fill="white"/>
<path d="M12.848 16.6276L15.2256 16.6276L11.6591 11.9474L10.4703 13.324L12.848 16.6276Z" fill="white"/>
<path d="M22 15H28C28.5523 15 29 15.4477 29 16V18C29 18.5523 28.5523 19 28 19H22C21.4477 19 21 18.5523 21 18V16C21 15.4477 21.4477 15 22 15Z" fill="#36559E"/>
<path d="M3.33333 24.3333H28C28.5523 24.3333 29 24.781 29 25.3333V27.3333C29 27.8856 28.5523 28.3333 28 28.3333H3.33333C2.78105 28.3333 2.33333 27.8856 2.33333 27.3333V25.3333C2.33333 24.781 2.78105 24.3333 3.33333 24.3333Z" fill="#36559E"/>
<path d="M23 6H28C28.5523 6 29 6.44772 29 7V9C29 9.55228 28.5523 10 28 10H23C22.4477 10 22 9.55228 22 9V7C22 6.44772 22.4477 6 23 6Z" fill="#36559E"/>
</svg>
